<?xml version="1.0" encoding="UTF-8"?>
<map version="1.10" tiledversion="1.12.1" orientation="isometric" renderorder="right-down" width="20" height="20" tilewidth="256" tileheight="128" infinite="0" nextlayerid="6" nextobjectid="1">
 <editorsettings>
  <export target="mapaexpedicao.tmj" format="json"/>
 </editorsettings>
 <tileset firstgid="1" name="base" tilewidth="256" tileheight="256" tilecount="92" columns="4" objectalignment="bottomleft">
  <image source="256_base.png" width="1024" height="6000"/>
 </tileset>
 <tileset firstgid="93" name="decor" tilewidth="256" tileheight="256" tilecount="92" columns="4" objectalignment="bottomleft">
  <image source="256_decor.png" width="1024" height="6000"/>
 </tileset>
 <layer id="1" name="base" width="20" height="20">
  <data encoding="csv">
69,69,69,69,69,69,69,69,69,69,69,69,69,69,69,69,69,69,69,69,
69,69,69,69,69,69,69,69,69,69,69,69,69,69,69,69,69,69,69,69,
69,69,69,69,69,69,69,69,69,69,69,69,69,69,69,69,69,69,69,69,
69,69,69,69,69,69,69,69,69,69,69,69,69,69,69,69,69,69,69,69,
69,69,69,69,69,69,69,69,69,69,69,69,69,69,69,69,69,69,69,69,
69,69,69,69,69,69,69,69,69,69,69,69,69,69,69,69,69,69,69,69,
69,69,69,69,69,69,69,69,69,69,69,69,69,69,69,69,69,69,69,69,
69,69,69,69,69,69,69,69,69,69,69,69,69,69,69,69,69,69,69,69,
69,69,69,69,69,69,69,69,69,69,69,69,69,69,69,69,69,69,69,69,
69,69,69,69,69,69,69,69,69,69,69,69,69,69,69,69,69,69,69,69,
69,69,69,69,69,69,69,69,69,69,69,69,69,69,69,69,69,69,69,69,
69,69,69,69,69,69,69,69,69,69,69,69,69,69,69,69,69,69,69,69,
69,69,69,69,69,69,69,69,69,69,69,69,69,69,69,69,69,69,69,69,
69,69,69,69,69,69,69,69,69,69,69,69,69,69,69,69,69,69,69,69,
69,69,69,69,69,69,69,69,69,69,69,69,69,69,69,69,69,69,69,69,
69,69,69,69,69,69,69,69,69,69,69,69,69,69,69,69,69,69,69,69,
69,69,69,69,69,69,69,69,69,69,69,69,69,69,69,69,69,69,69,69,
69,69,69,69,69,69,69,69,69,69,69,69,69,69,69,69,69,69,69,69,
69,69,69,69,69,69,69,69,69,69,69,69,69,69,69,69,69,69,69,69,
69,69,69,69,69,69,69,69,69,69,69,69,69,69,69,69,69,69,69,69
</data>
 </layer>
 <layer id="2" name="decor" width="20" height="20">
  <data encoding="csv">
156,146,146,146,149,146,146,146,146,146,146,146,146,149,146,146,146,146,154,0,
145,109,0,0,145,0,0,0,0,0,0,0,0,145,0,0,0,0,145,0,
145,0,0,0,145,0,0,0,0,0,0,0,0,145,0,0,0,0,145,0,
145,0,0,0,145,109,0,0,0,0,0,0,0,145,0,0,0,0,145,0,
145,0,0,0,150,146,146,146,146,146,146,146,146,151,0,0,0,0,145,0,
145,0,0,0,145,0,0,0,109,0,0,0,0,145,0,0,0,0,145,0,
145,0,0,0,145,0,0,0,0,0,0,0,0,145,0,0,0,0,145,0,
145,0,0,0,145,0,0,156,146,146,154,0,0,145,0,0,0,0,145,0,
150,146,146,146,152,146,146,155,0,0,153,146,146,152,146,146,146,146,151,0,
145,0,109,0,0,0,0,0,0,0,0,0,0,0,0,0,0,109,145,0,
150,146,146,146,149,146,146,154,0,0,156,146,146,149,146,146,146,146,151,0,
145,0,0,0,145,0,0,153,146,146,155,0,0,145,0,0,0,109,145,0,
145,0,0,0,145,0,0,0,0,0,0,0,0,145,0,0,0,0,145,0,
145,0,0,0,145,0,0,0,0,109,0,0,0,145,0,0,0,0,145,0,
145,0,0,0,150,146,146,146,146,146,146,146,146,151,0,0,0,0,145,0,
145,0,0,0,145,0,0,0,0,0,0,0,0,145,0,0,0,0,145,0,
145,0,0,0,145,0,0,0,0,0,0,0,0,145,0,0,0,0,145,0,
145,0,0,0,145,0,0,0,0,0,0,0,109,145,0,0,0,0,145,0,
153,146,146,146,152,146,146,146,146,146,146,146,146,152,146,146,146,146,155,0,
0,0,0,0,0,0,0,0,0,0,0,0,0,0,0,0,0,0,0,0
</data>
 </layer>
 <layer id="3" name="decor 01" width="20" height="20">
  <data encoding="csv">
0,0,0,0,0,0,0,0,0,0,0,0,0,0,0,0,0,0,0,0,
0,128,0,0,0,0,0,0,0,0,0,0,0,0,0,0,0,0,0,0,
0,0,0,0,0,0,0,0,0,0,0,0,0,0,0,0,0,0,0,0,
0,0,0,0,0,128,0,0,0,0,0,0,0,0,0,0,0,0,0,0,
0,0,0,0,0,0,0,0,0,0,0,0,0,0,0,0,0,0,0,0,
0,0,0,0,0,0,0,0,128,0,0,0,0,0,0,0,0,0,0,0,
0,0,0,0,0,0,0,0,0,0,0,0,0,0,0,0,0,0,0,0,
0,0,0,0,0,0,0,0,0,0,0,0,0,0,0,0,0,127,0,0,
0,0,0,0,0,0,0,0,0,0,0,0,0,0,0,0,0,0,0,0,
0,128,127,126,139,129,135,0,0,0,0,117,118,119,139,121,135,128,0,0,
0,0,0,0,0,0,0,0,0,0,0,0,0,0,0,0,0,0,0,0,
0,0,0,0,0,0,0,0,0,0,0,0,0,0,0,0,0,128,0,0,
0,0,0,0,0,0,0,0,0,0,0,0,0,0,0,0,0,0,0,0,
0,0,0,0,0,0,0,0,0,128,0,0,0,0,0,0,0,0,0,0,
0,0,0,0,0,0,0,0,0,0,0,0,0,0,0,0,0,0,0,0,
0,0,0,0,0,0,0,0,0,0,0,0,0,0,0,0,0,0,0,0,
0,0,0,0,0,0,0,0,0,0,0,0,0,0,0,0,0,0,0,0,
0,119,0,0,0,0,0,0,0,0,0,0,128,0,0,0,0,0,0,0,
0,0,0,0,0,0,0,0,0,0,0,0,0,0,0,0,0,0,0,0,
0,0,0,0,0,0,0,0,0,0,0,0,0,0,0,0,0,0,0,0
</data>
 </layer>
</map>
